X: 19577
T: James Murray's
R: reel
M: 4/4
K: Gmajor
|:eBdB AGG2|ABGE EDDE|DEGA Bdeg|dBGA BAA2|
eBdB AGGG|ABGE EDDE|DEGA (3Bcd eg|dBAc BGG2:|
|:DEGA Bddg|edBd efg2|agbg ageB|dBGA BAA2|
DEGA Bddg|edBd efg2|gbae gedB|dBAc BGG2:|

